img/logo.svg

<svg width="160" height="41" fill="none" xmlns="http://www.w3.org/2000/svg"><path d="M58.856 15.456h-5.568v-2.544h14.28v2.544h-5.592V30h-3.12V15.456zm15.265 2.136c.464 0 .864.064 1.2.192l-.024 2.736a4.171 4.171 0 00-1.584-.312c-1.024 0-1.808.296-2.352.888-.528.592-.792 1.376-.792 2.352V30h-2.976v-8.688c0-1.28-.064-2.424-.192-3.432h2.808l.24 2.136c.304-.784.784-1.384 1.44-1.8.656-.416 1.4-.624 2.232-.624zm14.228.288V30h-2.952v-1.944a3.971 3.971 0 01-1.584 1.584c-.688.368-1.472.552-2.352.552-1.056 0-1.992-.256-2.808-.768-.816-.512-1.448-1.24-1.896-2.184-.448-.944-.672-2.04-.672-3.288 0-1.248.224-2.352.672-3.312.464-.976 1.104-1.728 1.92-2.256.816-.544 1.744-.816 2.784-.816.88 0 1.664.192 2.352.576a3.817 3.817 0 011.584 1.56V17.88h2.952zm-6.072 9.96c.992 0 1.76-.344 2.304-1.032.544-.688.816-1.656.816-2.904 0-1.28-.272-2.264-.816-2.952-.544-.688-1.32-1.032-2.328-1.032-.992 0-1.768.36-2.328 1.08-.544.704-.816 1.688-.816 2.952 0 1.248.272 2.208.816 2.88.56.672 1.344 1.008 2.352 1.008zm15.075-13.128c-1.296 0-1.944.712-1.944 2.136v1.032h2.712v2.256h-2.712V30h-3v-9.864h-2.304V17.88h2.304v-1.176c0-1.44.36-2.544 1.08-3.312.736-.784 1.784-1.176 3.144-1.176.752 0 1.384.096 1.896.288v2.376a4.936 4.936 0 00-1.176-.168zm14.552 3.168V30h-2.952v-1.944a3.971 3.971 0 01-1.584 1.584c-.688.368-1.472.552-2.352.552-1.056 0-1.992-.256-2.808-.768-.816-.512-1.448-1.24-1.896-2.184-.448-.944-.672-2.04-.672-3.288 0-1.248.224-2.352.672-3.312.464-.976 1.104-1.728 1.92-2.256.816-.544 1.744-.816 2.784-.816.88 0 1.664.192 2.352.576a3.817 3.817 0 011.584 1.56V17.88h2.952zm-6.072 9.96c.992 0 1.76-.344 2.304-1.032.544-.688.816-1.656.816-2.904 0-1.28-.272-2.264-.816-2.952-.544-.688-1.32-1.032-2.328-1.032-.992 0-1.768.36-2.328 1.08-.544.704-.816 1.688-.816 2.952 0 1.248.272 2.208.816 2.88.56.672 1.344 1.008 2.352 1.008zm9.339-15.504h2.976V30h-2.976V12.336zm17.97 5.544v11.736c0 1.888-.52 3.32-1.56 4.296-1.04.976-2.568 1.464-4.584 1.464-1.872 0-3.52-.392-4.944-1.176l.48-2.28c1.472.768 2.936 1.152 4.392 1.152 2.16 0 3.24-1.072 3.24-3.216v-2.4c-.368.656-.904 1.192-1.608 1.608-.704.4-1.496.6-2.376.6-1.056 0-2-.248-2.832-.744-.816-.512-1.456-1.224-1.92-2.136-.448-.928-.672-1.984-.672-3.168 0-1.184.224-2.232.672-3.144.464-.928 1.104-1.64 1.92-2.136.832-.512 1.776-.768 2.832-.768.896 0 1.688.192 2.376.576.704.368 1.24.888 1.608 1.56V17.88h2.976zm-6.168 9.432c.992 0 1.768-.328 2.328-.984.576-.656.864-1.56.864-2.712 0-1.152-.28-2.056-.84-2.712-.56-.656-1.344-.984-2.352-.984-.992 0-1.776.328-2.352.984-.56.656-.84 1.56-.84 2.712 0 1.152.28 2.056.84 2.712.576.656 1.36.984 2.352.984zm21.001-9.432V30h-2.952v-1.944a3.971 3.971 0 01-1.584 1.584c-.688.368-1.472.552-2.352.552-1.056 0-1.992-.256-2.808-.768-.816-.512-1.448-1.24-1.896-2.184-.448-.944-.672-2.04-.672-3.288 0-1.248.224-2.352.672-3.312.464-.976 1.104-1.728 1.92-2.256.816-.544 1.744-.816 2.784-.816.88 0 1.664.192 2.352.576a3.817 3.817 0 011.584 1.56V17.88h2.952zm-6.072 9.96c.992 0 1.76-.344 2.304-1.032.544-.688.816-1.656.816-2.904 0-1.28-.272-2.264-.816-2.952-.544-.688-1.32-1.032-2.328-1.032-.992 0-1.768.36-2.328 1.08-.544.704-.816 1.688-.816 2.952 0 1.248.272 2.208.816 2.88.56.672 1.344 1.008 2.352 1.008zm15.867-10.248c.464 0 .864.064 1.2.192l-.024 2.736a4.171 4.171 0 00-1.584-.312c-1.024 0-1.808.296-2.352.888-.528.592-.792 1.376-.792 2.352V30h-2.976v-8.688c0-1.28-.064-2.424-.192-3.432h2.808l.24 2.136c.304-.784.784-1.384 1.44-1.8.656-.416 1.4-.624 2.232-.624z" fill="#233348"/><circle cx="20.5" cy="20.5" r="20.5" fill="#458FF6"/><path d="M19.344 15.244h-6.032v-2.756h15.47v2.756h-6.058V31h-3.38V15.244z" fill="#fff"/></svg>

<svg width="160" height="41" viewBox="0 0 160 41" fill="none" xmlns="http://www.w3.org/2000/svg">
<path d="M58.856 15.456H53.288V12.912H67.568V15.456H61.976V30H58.856V15.456ZM74.1209 17.592C74.5849 17.592 74.9849 17.656 75.3209 17.784L75.2969 20.52C74.7849 20.312 74.2569 20.208 73.7129 20.208C72.6889 20.208 71.9049 20.504 71.3609 21.096C70.8329 21.688 70.5689 22.472 70.5689 23.448V30H67.5929V21.312C67.5929 20.032 67.5289 18.888 67.4009 17.88H70.2089L70.4489 20.016C70.7529 19.232 71.2329 18.632 71.8889 18.216C72.5449 17.8 73.2889 17.592 74.1209 17.592ZM88.349 17.88V30H85.397V28.056C85.029 28.728 84.501 29.256 83.813 29.64C83.125 30.008 82.341 30.192 81.461 30.192C80.405 30.192 79.469 29.936 78.653 29.424C77.837 28.912 77.205 28.184 76.757 27.24C76.309 26.296 76.085 25.2 76.085 23.952C76.085 22.704 76.309 21.6 76.757 20.64C77.221 19.664 77.861 18.912 78.677 18.384C79.493 17.84 80.421 17.568 81.461 17.568C82.341 17.568 83.125 17.76 83.813 18.144C84.501 18.512 85.029 19.032 85.397 19.704V17.88H88.349ZM82.277 27.84C83.269 27.84 84.037 27.496 84.581 26.808C85.125 26.12 85.397 25.152 85.397 23.904C85.397 22.624 85.125 21.64 84.581 20.952C84.037 20.264 83.261 19.92 82.253 19.92C81.261 19.92 80.485 20.28 79.925 21C79.381 21.704 79.109 22.688 79.109 23.952C79.109 25.2 79.381 26.16 79.925 26.832C80.485 27.504 81.269 27.84 82.277 27.84ZM97.3524 14.712C96.0564 14.712 95.4084 15.424 95.4084 16.848V17.88H98.1204V20.136H95.4084V30H92.4084V20.136H90.1044V17.88H92.4084V16.704C92.4084 15.264 92.7684 14.16 93.4884 13.392C94.2244 12.608 95.2724 12.216 96.6324 12.216C97.3844 12.216 98.0164 12.312 98.5284 12.504V14.88C98.0804 14.768 97.6884 14.712 97.3524 14.712ZM111.904 17.88V30H108.952V28.056C108.584 28.728 108.056 29.256 107.368 29.64C106.68 30.008 105.896 30.192 105.016 30.192C103.96 30.192 103.024 29.936 102.208 29.424C101.392 28.912 100.76 28.184 100.312 27.24C99.8637 26.296 99.6397 25.2 99.6397 23.952C99.6397 22.704 99.8637 21.6 100.312 20.64C100.776 19.664 101.416 18.912 102.232 18.384C103.048 17.84 103.976 17.568 105.016 17.568C105.896 17.568 106.68 17.76 107.368 18.144C108.056 18.512 108.584 19.032 108.952 19.704V17.88H111.904ZM105.832 27.84C106.824 27.84 107.592 27.496 108.136 26.808C108.68 26.12 108.952 25.152 108.952 23.904C108.952 22.624 108.68 21.64 108.136 20.952C107.592 20.264 106.816 19.92 105.808 19.92C104.816 19.92 104.04 20.28 103.48 21C102.936 21.704 102.664 22.688 102.664 23.952C102.664 25.2 102.936 26.16 103.48 26.832C104.04 27.504 104.824 27.84 105.832 27.84ZM115.171 12.336H118.147V30H115.171V12.336ZM133.141 17.88V29.616C133.141 31.504 132.621 32.936 131.581 33.912C130.541 34.888 129.013 35.376 126.997 35.376C125.125 35.376 123.477 34.984 122.053 34.2L122.533 31.92C124.005 32.688 125.469 33.072 126.925 33.072C129.085 33.072 130.165 32 130.165 29.856V27.456C129.797 28.112 129.261 28.648 128.557 29.064C127.853 29.464 127.061 29.664 126.181 29.664C125.125 29.664 124.181 29.416 123.349 28.92C122.533 28.408 121.893 27.696 121.429 26.784C120.981 25.856 120.757 24.8 120.757 23.616C120.757 22.432 120.981 21.384 121.429 20.472C121.893 19.544 122.533 18.832 123.349 18.336C124.181 17.824 125.125 17.568 126.181 17.568C127.077 17.568 127.869 17.76 128.557 18.144C129.261 18.512 129.797 19.032 130.165 19.704V17.88H133.141ZM126.973 27.312C127.965 27.312 128.741 26.984 129.301 26.328C129.877 25.672 130.165 24.768 130.165 23.616C130.165 22.464 129.885 21.56 129.325 20.904C128.765 20.248 127.981 19.92 126.973 19.92C125.981 19.92 125.197 20.248 124.621 20.904C124.061 21.56 123.781 22.464 123.781 23.616C123.781 24.768 124.061 25.672 124.621 26.328C125.197 26.984 125.981 27.312 126.973 27.312ZM147.974 17.88V30H145.022V28.056C144.654 28.728 144.126 29.256 143.438 29.64C142.75 30.008 141.966 30.192 141.086 30.192C140.03 30.192 139.094 29.936 138.278 29.424C137.462 28.912 136.83 28.184 136.382 27.24C135.934 26.296 135.71 25.2 135.71 23.952C135.71 22.704 135.934 21.6 136.382 20.64C136.846 19.664 137.486 18.912 138.302 18.384C139.118 17.84 140.046 17.568 141.086 17.568C141.966 17.568 142.75 17.76 143.438 18.144C144.126 18.512 144.654 19.032 145.022 19.704V17.88H147.974ZM141.902 27.84C142.894 27.84 143.662 27.496 144.206 26.808C144.75 26.12 145.022 25.152 145.022 23.904C145.022 22.624 144.75 21.64 144.206 20.952C143.662 20.264 142.886 19.92 141.878 19.92C140.886 19.92 140.11 20.28 139.55 21C139.006 21.704 138.734 22.688 138.734 23.952C138.734 25.2 139.006 26.16 139.55 26.832C140.11 27.504 140.894 27.84 141.902 27.84ZM157.769 17.592C158.233 17.592 158.633 17.656 158.969 17.784L158.945 20.52C158.433 20.312 157.905 20.208 157.361 20.208C156.337 20.208 155.553 20.504 155.009 21.096C154.481 21.688 154.217 22.472 154.217 23.448V30H151.241V21.312C151.241 20.032 151.177 18.888 151.049 17.88H153.857L154.097 20.016C154.401 19.232 154.881 18.632 155.537 18.216C156.193 17.8 156.937 17.592 157.769 17.592Z" fill="#233348"/>
<circle cx="20.5" cy="20.5" r="20.5" fill="#458FF6"/>
<path d="M19.344 15.244H13.312V12.488H28.782V15.244H22.724V31H19.344V15.244Z" fill="white"/>
</svg>
